client/public/assets/icons/custom/custom100.svg

<?xml version="1.0"?><svg xmlns="http://www.w3.org/2000/svg" width="100" height="100" viewBox="0 0 100 100"><g fill="#fff"><path d="m61.9 72h-23.8c-0.7 0-1.1 0.6-1 1.3 1 3.8 6.4 6.7 12.8 6.7 6.5 0 11.9-2.9 12.8-6.7 0.3-0.7-0.2-1.3-0.8-1.3z m12.1-46h-48c-3.3 0-6 2.7-6 6v28c0 3.3 2.7 6 6 6h48c3.3 0 6-2.7 6-6v-28c0-3.3-2.7-6-6-6z m0 32c0 1.1-0.9 2-2 2h-44c-1.1 0-2-0.9-2-2v-24c0-1.1 0.9-2 2-2h44c1.1 0 2 0.9 2 2v24z"></path></g></svg>

<?xml version="1.0" encoding="utf-8"?>
<!-- Generator: Adobe Illustrator 16.0.0, SVG Export Plug-In . SVG Version: 6.00 Build 0)  -->
<!DOCTYPE svg PUBLIC "-//W3C//DTD SVG 1.1//EN" "http://www.w3.org/Graphics/SVG/1.1/DTD/svg11.dtd">
<svg version="1.1" id="Layer_1" xmlns="http://www.w3.org/2000/svg" xmlns:xlink="http://www.w3.org/1999/xlink" x="0px" y="0px"
	 width="100px" height="100px" viewBox="0 0 100 100" enable-background="new 0 0 100 100" xml:space="preserve">
<g>
	<path fill="#FFFFFF" d="M61.9,72H38.1c-0.7,0-1.1,0.6-1,1.3c1,3.8,6.4,6.7,12.8,6.7c6.5,0,11.9-2.9,12.8-6.7
		C63,72.6,62.5,72,61.9,72z"/>
	<path fill="#FFFFFF" d="M74,26H26c-3.3,0-6,2.7-6,6v28c0,3.3,2.7,6,6,6h48c3.3,0,6-2.7,6-6V32C80,28.7,77.3,26,74,26z M74,58
		c0,1.1-0.9,2-2,2H28c-1.1,0-2-0.9-2-2V34c0-1.1,0.9-2,2-2h44c1.1,0,2,0.9,2,2V58z"/>
</g>
</svg>
